X:1
T:Day of Days
T:Day of Days
T:Robert Frank Lehman
T:Alice Jean Cleator, 1901
T:Public Domain Courtesy of the Cyber Hymnal™
T:Public Domain Courtesy of the Cyber Hymnal™
C:Robert Frank Lehman
Z:Public Domain
Z:Courtesy of the Cyber Hymnal™
%%score ( 1 2 ) ( 3 4 )
L:1/8
Q:1/4=110
M:6/8
K:Bb
V:1 treble 
V:2 treble 
V:3 bass 
V:4 bass 
V:1
 [DF]3 [^C=E]2 [DF] | [DB]3- [DB]2 [DB] | [EB]2 [EA] (cB)[EG] | [DF]3- [DF]2 z | %4
w: 1.~O day of|days * that|time can ne- * ver|dim, *|
w: 2.~O time of|joy * and|ad- o- ra- * tion|sweet, *|
w: 3.~Some day the|heav’ns * a|bright- er glow * shall|wear, *|
 [DF]3 [^C=E]2 [DF] | [DB]3- [DB]2 [DB] | [=EB]2 [EG] [EA]2 [EB] | ([E-c]3 [EF]2) z | %8
w: O day that|lives * in|Christ- mas chime and|hymn, *|
w: When men and|an- * gels|wor- shipped at His|feet, *|
w: When Christ un-|to * the|na- tions shall ap-|pear, *|
 [DF]3 [^C=E]2 [DF] | [DB]3- [DB]2 [DB] | [EB]2 [EA] (cB)[EG] | [DF]3- [DF]2 z | [DB]3 [EA]2 [FB] | %13
w: When He so|strong * and|yet so meek * and|mild, *|Came ev- en|
w: When earth and|Heav’n * re-|sound- ed with * His|praise, *|Up- on that|
w: When He shall|come, * but|not in low- * ly|guise, *|In power and|
 [Ec]3 [EG]3 | [EA-]3 (AB)[Ec] | [DB]3- [DB]2 z || %16
w: as a|lit- * * tle|child! *|
w: glor- ious|day * * of|days! *|
w: splen- dor|from * * the|skies. *|
"^Refrain" z ([B,D][G,B,])"^Male voices in unison" z ([B,D][B,D]) | z ([FB][FB]) z ([DFB][DFB]) | %18
w: ||
w: ||
w: ||
 z ([B,E][B,E]) z ([E_G][EG]) | z ([B,DF][B,DF][B,DF][B,DF][B,DF]) | %20
w: ||
w: ||
w: ||
 z ([B,D][B,D]) z ([B,D][B,D]) | z ([FB][FB]) z ([DF][DF]) | z ([C=E][CE]) z ([EB][EB]) | %23
w: |||
w: |||
w: |||
 z [FA] z4 |"^All in unison" D3 F3 | d3 B3 | G3 B3 | F6 | [DB]3 ([EA]2 [F_A]) | [EG]3 (f2 e) | %30
w: |||||||
w: |||||||
w: |||||||
 [Fd]3 [Ec]3 | [DB]3- [DB]2 z |] %32
w: ||
w: ||
w: ||
V:2
 x6 | x6 | x3 E2 x | x6 | x6 | x6 | x6 | x6 | x6 | x6 | x3 E2 x | x6 | x6 | x6 | x3 E2 x | x6 || %16
 x6 | x6 | x6 | x6 | x6 | x6 | x6 | x6 | x6 | x6 | x6 | x6 | x6 | x3 G3 | x6 | x6 |] %32
V:3
 [B,,B,]3 [B,,B,]2 [B,,B,] | [B,,F,]3- [B,,F,]2 [B,,F,] | [E,G,]2 [E,^G,] (A,G,)[E,B,] | %3
w: ~ ~ ~|~ * ~|~ ~ ~ * ~|
 [B,,B,]3- [B,,B,]2 z | [B,,B,]3 [B,,B,]2 [B,,B,] | [B,,F,]3- [B,,F,]2 [B,,F,] | %6
w: ~ *|~ ~ ~|~ * ~|
 [C,G,]2 [C,B,] [C,C]2 [C,G,] | [F,A,]3- [F,A,]2 z | [B,,B,]3 [B,,B,]2 [B,,B,] | %9
w: ~ ~ ~ ~|~ *|~ ~ ~|
 [B,,F,]3- [B,,F,]2 [B,,F,] | [E,G,]2 [E,^F,] (A,G,)[E,B,] | [B,,B,]3- [B,,B,]2 z | %12
w: ~ * ~|~ ~ ~ * ~|~ *|
 [B,,F,]3 [C,F,]2 [D,_A,] | [E,G,]3 [E,B,]3 | F,3- (F,G,)[F,A,] | [B,,B,]3- [B,,B,]2 z || D,3 F,3 | %17
w: ~ ~ ~|~ ~|~ * * ~|~ *|Now a-|
 D3 B,3 | G,3 B,3 | F,3- F,2 z | D,3 F,3 | D3 B,3 | G,3 C3 | (z2 A, [G,C]2 F,) | %24
w: wake and|ca- rols|sing! *|Hail the|birth- day|of the||
 B,,[F,B,][F,B,] (B,,[F,B,D][F,B,D]) | (B,,[F,B,D][F,B,D]) (B,,[F,B,D][F,B,D]) | %26
w: * * * King! * *|Now * * a- * *|
 (E,[G,B,E][G,B,E]) (E,[_G,B,E][G,B,E]) | (B,,[F,B,D][F,B,D][F,B,D][F,B,D][F,B,D]) | %28
w: wake * * and * *|car- * * * * *|
 [B,,F,]3 ([C,F,]2 [D,B,]) | [E,B,]3 [E,B,]3 | [F,B,]3 [F,A,]3 | [B,,B,]3- [B,,B,]2 z |] %32
w: ols sing! *|Hail the|birth- day|of *|
V:4
 x6 | x6 | x3 E,2 x | x6 | x6 | x6 | x6 | x6 | x6 | x6 | x3 E,2 x | x6 | x6 | x6 | F,3- F,2 x | %15
 x6 || x6 | x6 | x6 | x6 | x6 | x6 | x6 | C3 x3 | x6 | x6 | x6 | x6 | x6 | x6 | x6 | x6 |] %32

